X: 1
T: Jo and Evelyn Ramwell
C: George B Stirrat
R: jig
M: 6/8
L: 1/8
K: G
[|\
"G"Bcd G2B | "G"Bcd "Am"ABc | "D7"d^cd b2a | "G"g3 "G7"g3 |\
"C"e^de c=de | "G"d2g B2d | "A7"^c2e a2g | "D7"fed cBA ||
||\
"G"Bcd G2B | "G"Bcd "Am"ABc | "D7"d^cd b2a | "G"g3 "G7"g3 |\
"C"e=f^f gag | "G"d^cd "(A7)"bag | "D7"fed cBA | "G"G3 "G7"G3 |][K:=f]
K: C
[|\
"C"E2G CD^D | EF^F G3 | "G7"GAB cd^d | "C"ef^f g3 |\
"Dm"f2a d2e | f2e d3 | "D7"d'2c' b2a | "G7"g3 g3 ||
||\
"C"E2G CD^D | EF^F G3 | "G7"GAB cd^d | "C"ef^f g3 |\
"Fm"FEF c_AF | "C"G^FG "A7"e^cA | "D(m)7"ded "G7"A2B | "C"c3 c3 |]
